X: 21
T: Spero
P: Play two times through
N: Drone: F/C
K: F major
M: 6/8
L: 1/8
P: A
"^Piva"F2F A2B | c2c c2f | e2d c2B | A2A Az2 :: \
P: B
B3 B2A/G/ | F2F z2c | \
B2A G3 | F2F z3 :| 
M: 4/4
P: C
"^Quadernaria"cccc FFFz | GGGG FFFz || \
M: 6/8
P: D
"^Saltarello"f3 f3 | c3 c3 | F3 F3 | c3 B3/A/G | F3 c3/A/G | F3 F3 || 
M: 6/4
P: E
"^Bassadanza"F4F2 F4D2 | D4D2 G4B2 | c2d2c2 c4A2 | G4G2 F2E2ED | D4F2 G2A2B2 | c4A2 A4A2 | \
B4B2 d2c2B2 | A4A2 F6 || 
M: 6/8
P: F
"^Piva"F2G A2A | B2c A2A | G2G F2z | F2G A2A | B2c A2A | G2G F2A/B/ | 
c2c z3 | dc2 cB2 | A2A G2G | F2F z2c | A2A G2G | F2F F3 |] 


